src/images/single-assets/LAC.svg

<svg width="72" height="72" viewBox="0 0 72 72" fill="none" xmlns="http://www.w3.org/2000/svg">
<g clip-path="url(#clip0_17665_354348)">
<path d="M35.9998 70.157C54.8643 70.157 70.1569 54.8644 70.1569 36C70.1569 17.1355 54.8643 1.8429 35.9998 1.8429C17.1354 1.8429 1.84277 17.1355 1.84277 36C1.84277 54.8644 17.1354 70.157 35.9998 70.157Z" fill="url(#paint0_linear_17665_354348)"/>
<path fill-rule="evenodd" clip-rule="evenodd" d="M35.9998 3.68589C18.1533 3.68589 3.68577 18.1534 3.68577 36C3.68577 53.8465 18.1533 68.314 35.9998 68.314C53.8464 68.314 68.3139 53.8465 68.3139 36C68.3139 18.1534 53.8464 3.68589 35.9998 3.68589ZM-0.000244141 36C-0.000244141 16.1177 16.1175 -0.00012207 35.9998 -0.00012207C55.8821 -0.00012207 71.9999 16.1177 71.9999 36C71.9999 55.8822 55.8821 72 35.9998 72C16.1175 72 -0.000244141 55.8822 -0.000244141 36Z" fill="#7333FF"/>
<path d="M36 63.5222C49.8429 63.5222 61.0649 52.3003 61.0649 38.4573C61.0649 24.6143 49.8429 13.3924 36 13.3924C22.157 13.3924 10.9351 24.6143 10.9351 38.4573C10.9351 52.3003 22.157 63.5222 36 63.5222Z" fill="url(#paint1_linear_17665_354348)"/>
<path d="M36 61.0649C49.8429 61.0649 61.0649 49.8429 61.0649 36C61.0649 22.157 49.8429 10.9351 36 10.9351C22.157 10.9351 10.9351 22.157 10.9351 36C10.9351 49.8429 22.157 61.0649 36 61.0649Z" fill="url(#paint2_linear_17665_354348)"/>
<path opacity="0.5" d="M61.0649 36C61.0649 36.86 61.0649 37.7201 60.942 38.5802C59.5905 25.9249 48.901 16.0955 36 16.0955C23.0989 16.0955 12.4095 25.9249 11.0579 38.5802C10.9351 37.7201 10.9351 36.86 10.9351 36C10.9351 22.116 22.116 10.9351 36 10.9351C49.884 10.9351 61.0649 22.116 61.0649 36Z" fill="#8457FF"/>
<path fill-rule="evenodd" clip-rule="evenodd" d="M34.071 37.9285C34.4309 38.2884 34.4309 38.8719 34.071 39.2317L30.2621 43.0406C28.9019 44.4009 28.9019 46.7662 30.2621 48.1265C31.6224 49.4868 33.9878 49.4868 35.348 48.1265L35.9996 47.4749L36.6512 48.1265C38.0115 49.4868 40.3768 49.4868 41.7371 48.1265C43.0974 46.7662 43.0974 44.4009 41.7371 43.0406L37.9282 39.2317C37.5684 38.8719 37.5684 38.2884 37.9282 37.9285C38.2881 37.5687 38.8716 37.5687 39.2314 37.9285L43.0403 41.7374C45.1203 43.8174 45.1203 47.3497 43.0403 49.4297C41.1644 51.3056 38.1073 51.4897 35.9996 49.982C33.8919 51.4897 30.8348 51.3056 28.9589 49.4297C26.8789 47.3497 26.8789 43.8174 28.9589 41.7374L32.7678 37.9285C33.1277 37.5687 33.7111 37.5687 34.071 37.9285Z" fill="#7333FF"/>
<path fill-rule="evenodd" clip-rule="evenodd" d="M35.9996 22.0179C33.8919 20.5102 30.8348 20.6943 28.9589 22.5701C26.8789 24.6501 26.8789 28.1824 28.9589 30.2624L32.7678 34.0713C33.1277 34.4312 33.7111 34.4312 34.071 34.0713C34.4309 33.7114 34.4309 33.128 34.071 32.7681L30.2621 28.9592C28.9019 27.599 28.9019 25.2336 30.2621 23.8733C31.6224 22.5131 33.9878 22.5131 35.348 23.8733L35.9996 24.5249L36.6512 23.8733C38.0115 22.5131 40.3768 22.5131 41.7371 23.8733C43.0974 25.2336 43.0974 27.599 41.7371 28.9592L37.9282 32.7681C37.5684 33.128 37.5684 33.7114 37.9282 34.0713C38.2881 34.4312 38.8716 34.4312 39.2314 34.0713L43.0403 30.2624C45.1203 28.1824 45.1203 24.6501 43.0403 22.5701C41.1644 20.6943 38.1073 20.5102 35.9996 22.0179Z" fill="#7333FF"/>
<path fill-rule="evenodd" clip-rule="evenodd" d="M22.57 28.9592C24.65 26.8792 28.1823 26.8792 30.2623 28.9592L34.0712 32.7681C34.4311 33.128 34.4311 33.7115 34.0712 34.0713C33.7113 34.4312 33.1279 34.4312 32.768 34.0713L28.9591 30.2624C27.5988 28.9022 25.2335 28.9022 23.8732 30.2624C22.513 31.6227 22.513 33.9881 23.8732 35.3483L24.5248 35.9999L23.8732 36.6515C22.513 38.0118 22.513 40.3772 23.8732 41.7374C25.2335 43.0977 27.5988 43.0977 28.9591 41.7374L32.768 37.9285C33.1279 37.5687 33.7113 37.5687 34.0712 37.9285C34.4311 38.2884 34.4311 38.8719 34.0712 39.2317L30.2623 43.0406C28.1823 45.1206 24.65 45.1206 22.57 43.0406C20.6941 41.1647 20.51 38.1077 22.0177 35.9999C20.51 33.8922 20.6941 30.8351 22.57 28.9592Z" fill="#7333FF"/>
<path fill-rule="evenodd" clip-rule="evenodd" d="M41.7372 28.9592C43.8172 26.8792 47.3495 26.8792 49.4295 28.9592C51.3054 30.8351 51.4895 33.8922 49.9818 35.9999C51.4895 38.1077 51.3054 41.1647 49.4295 43.0406C47.3495 45.1206 43.8172 45.1206 41.7372 43.0406L37.9283 39.2317C37.5685 38.8719 37.5685 38.2884 37.9283 37.9285C38.2882 37.5687 38.8717 37.5687 39.2316 37.9285L43.0404 41.7374C44.4007 43.0977 46.7661 43.0977 48.1263 41.7374C49.4866 40.3772 49.4866 38.0118 48.1263 36.6515L47.4747 35.9999L48.1263 35.3483C49.4866 33.9881 49.4866 31.6227 48.1263 30.2624C46.7661 28.9022 44.4007 28.9022 43.0404 30.2624L39.2316 34.0713C38.8717 34.4312 38.2882 34.4312 37.9283 34.0713C37.5685 33.7115 37.5685 33.128 37.9283 32.7681L41.7372 28.9592Z" fill="#7333FF"/>
</g>
<defs>
<linearGradient id="paint0_linear_17665_354348" x1="46.8966" y1="5.75228" x2="25.6503" y2="64.5883" gradientUnits="userSpaceOnUse">
<stop offset="0.1161" stop-color="white"/>
<stop offset="0.2704" stop-color="#F8F7FF"/>
<stop offset="0.5145" stop-color="#E7E0FF"/>
<stop offset="0.8159" stop-color="#C9BBFF"/>
<stop offset="1" stop-color="#B5A1FF"/>
</linearGradient>
<linearGradient id="paint1_linear_17665_354348" x1="10.933" y1="38.4381" x2="61.0286" y2="38.4381" gradientUnits="userSpaceOnUse">
<stop offset="0.1161" stop-color="white"/>
<stop offset="0.2704" stop-color="#F8F7FF"/>
<stop offset="0.5145" stop-color="#E7E0FF"/>
<stop offset="0.8159" stop-color="#C9BBFF"/>
<stop offset="1" stop-color="#B5A1FF"/>
</linearGradient>
<linearGradient id="paint2_linear_17665_354348" x1="43.9985" y1="13.778" x2="28.3931" y2="56.9931" gradientUnits="userSpaceOnUse">
<stop offset="0.6281" stop-color="#B5A1FF"/>
<stop offset="1" stop-color="#B5A1FF"/>
</linearGradient>
<clipPath id="clip0_17665_354348">
<rect width="72" height="72" fill="white"/>
</clipPath>
</defs>
</svg>

<svg xmlns="http://www.w3.org/2000/svg" width="72" height="72" fill="none"><g clip-path="url(#a)"><path fill="url(#b)" d="M36 70.157c18.864 0 34.157-15.293 34.157-34.157S54.864 1.843 36 1.843C17.135 1.843 1.843 17.136 1.843 36S17.135 70.157 36 70.157"/><path fill="#7333FF" fill-rule="evenodd" d="M36 3.686C18.153 3.686 3.686 18.153 3.686 36S18.153 68.314 36 68.314c17.846 0 32.314-14.467 32.314-32.314S53.846 3.686 36 3.686M0 36C0 16.118 16.118 0 36 0s36 16.118 36 36-16.118 36-36 36S0 55.882 0 36" clip-rule="evenodd"/><path fill="url(#c)" d="M36 63.522c13.843 0 25.065-11.222 25.065-25.065S49.843 13.392 36 13.392 10.935 24.614 10.935 38.457 22.157 63.522 36 63.522"/><path fill="url(#d)" d="M36 61.065c13.843 0 25.065-11.222 25.065-25.065S49.843 10.935 36 10.935 10.935 22.157 10.935 36 22.157 61.065 36 61.065"/><path fill="#8457FF" d="M61.065 36c0 .86 0 1.72-.123 2.58C59.59 25.925 48.901 16.096 36 16.096S12.41 25.925 11.058 38.58c-.123-.86-.123-1.72-.123-2.58A25.013 25.013 0 0 1 36 10.935 25.013 25.013 0 0 1 61.065 36" opacity=".5"/><path fill="#7333FF" fill-rule="evenodd" d="M34.071 37.929c.36.36.36.943 0 1.303l-3.809 3.809c-1.36 1.36-1.36 3.725 0 5.086 1.36 1.36 3.726 1.36 5.086 0l.652-.652.651.651c1.36 1.36 3.726 1.36 5.086 0s1.36-3.725 0-5.085l-3.809-3.81a.922.922 0 0 1 1.303-1.303l3.81 3.81c2.08 2.08 2.08 5.612 0 7.692-1.877 1.876-4.934 2.06-7.041.552-2.108 1.508-5.165 1.324-7.041-.552-2.08-2.08-2.08-5.613 0-7.693l3.809-3.809a.92.92 0 0 1 1.303 0M36 22.018c-2.108-1.508-5.165-1.324-7.041.552-2.08 2.08-2.08 5.612 0 7.692l3.809 3.81a.921.921 0 1 0 1.303-1.304l-3.809-3.809c-1.36-1.36-1.36-3.725 0-5.086 1.36-1.36 3.726-1.36 5.086 0l.652.652.651-.652c1.36-1.36 3.726-1.36 5.086 0s1.36 3.726 0 5.086l-3.809 3.81a.922.922 0 0 0 1.303 1.302l3.81-3.809c2.08-2.08 2.08-5.612 0-7.692-1.877-1.876-4.934-2.06-7.041-.552" clip-rule="evenodd"/><path fill="#7333FF" fill-rule="evenodd" d="M22.57 28.96c2.08-2.08 5.612-2.08 7.692 0l3.81 3.808a.921.921 0 1 1-1.304 1.303l-3.809-3.809c-1.36-1.36-3.726-1.36-5.086 0s-1.36 3.726 0 5.086l.652.652-.652.651c-1.36 1.36-1.36 3.726 0 5.086s3.726 1.36 5.086 0l3.809-3.809a.922.922 0 0 1 1.303 1.304l-3.809 3.809c-2.08 2.08-5.612 2.08-7.692 0-1.876-1.876-2.06-4.933-.552-7.041-1.508-2.108-1.324-5.165.552-7.04M41.737 28.96c2.08-2.08 5.612-2.08 7.692 0 1.876 1.875 2.06 4.932.553 7.04 1.508 2.108 1.323 5.165-.553 7.04-2.08 2.08-5.612 2.08-7.692 0l-3.809-3.808a.922.922 0 0 1 1.304-1.303l3.808 3.808c1.36 1.36 3.726 1.36 5.086 0s1.36-3.725 0-5.086L47.475 36l.651-.652c1.36-1.36 1.36-3.725 0-5.086-1.36-1.36-3.725-1.36-5.086 0l-3.808 3.81a.922.922 0 0 1-1.304-1.304z" clip-rule="evenodd"/></g><defs><linearGradient id="b" x1="46.897" x2="25.65" y1="5.752" y2="64.588" gradientUnits="userSpaceOnUse"><stop offset=".116" stop-color="#fff"/><stop offset=".27" stop-color="#F8F7FF"/><stop offset=".514" stop-color="#E7E0FF"/><stop offset=".816" stop-color="#C9BBFF"/><stop offset="1" stop-color="#B5A1FF"/></linearGradient><linearGradient id="c" x1="10.933" x2="61.029" y1="38.438" y2="38.438" gradientUnits="userSpaceOnUse"><stop offset=".116" stop-color="#fff"/><stop offset=".27" stop-color="#F8F7FF"/><stop offset=".514" stop-color="#E7E0FF"/><stop offset=".816" stop-color="#C9BBFF"/><stop offset="1" stop-color="#B5A1FF"/></linearGradient><linearGradient id="d" x1="43.998" x2="28.393" y1="13.778" y2="56.993" gradientUnits="userSpaceOnUse"><stop offset=".628" stop-color="#B5A1FF"/><stop offset="1" stop-color="#B5A1FF"/></linearGradient><clipPath id="a"><path fill="#fff" d="M0 0h72v72H0z"/></clipPath></defs></svg>
